src/pos-icons/map-marker-multiple.svg

<svg height="24" viewBox="0 0 24 24" width="24" xmlns="http://www.w3.org/2000/svg"><path d="m14 11.5a2.5 2.5 0 0 0 2.5-2.5 2.5 2.5 0 0 0 -2.5-2.5 2.5 2.5 0 0 0 -2.5 2.5 2.5 2.5 0 0 0 2.5 2.5m0-9.5c3.86 0 7 3.13 7 7 0 5.25-7 13-7 13s-7-7.75-7-13a7 7 0 0 1 7-7m-9 7c0 4.5 5.08 10.66 6 11.81l-1 1.19s-7-7.75-7-13c0-3.17 2.11-5.85 5-6.71-1.84 1.65-3 4.04-3 6.71z"/></svg>

<?xml version="1.0" encoding="UTF-8"?><!DOCTYPE svg PUBLIC "-//W3C//DTD SVG 1.1//EN" "http://www.w3.org/Graphics/SVG/1.1/DTD/svg11.dtd"><svg xmlns="http://www.w3.org/2000/svg" xmlns:xlink="http://www.w3.org/1999/xlink" version="1.1" id="mdi-map-marker-multiple" width="24" height="24" viewBox="0 0 24 24"><path d="M14,11.5A2.5,2.5 0 0,0 16.5,9A2.5,2.5 0 0,0 14,6.5A2.5,2.5 0 0,0 11.5,9A2.5,2.5 0 0,0 14,11.5M14,2C17.86,2 21,5.13 21,9C21,14.25 14,22 14,22C14,22 7,14.25 7,9A7,7 0 0,1 14,2M5,9C5,13.5 10.08,19.66 11,20.81L10,22C10,22 3,14.25 3,9C3,5.83 5.11,3.15 8,2.29C6.16,3.94 5,6.33 5,9Z" /></svg>
